templates/flag_icons/bi.svg

<?xml version="1.0" encoding="UTF-8" standalone="no"?>
<svg width="23px" height="17px" viewBox="0 0 23 17" version="1.1" xmlns="http://www.w3.org/2000/svg" xmlns:xlink="http://www.w3.org/1999/xlink">
    <!-- Generator: Sketch 3.7.2 (28276) - http://www.bohemiancoding.com/sketch -->
    <title>BI</title>
    <desc>Created with Sketch.</desc>
    <defs>
        <linearGradient x1="50%" y1="0%" x2="50%" y2="100%" id="linearGradient-1">
            <stop stop-color="#FFFFFF" offset="0%"></stop>
            <stop stop-color="#F0F0F0" offset="100%"></stop>
        </linearGradient>
        <rect id="path-2" x="0" y="0" width="21" height="15" rx="1.5"></rect>
        <filter x="-50%" y="-50%" width="200%" height="200%" filterUnits="objectBoundingBox" id="filter-4">
            <feOffset dx="0" dy="0.5" in="SourceAlpha" result="shadowOffsetOuter1"></feOffset>
            <feGaussianBlur stdDeviation="0.5" in="shadowOffsetOuter1" result="shadowBlurOuter1"></feGaussianBlur>
            <feColorMatrix values="0 0 0 0 0   0 0 0 0 0   0 0 0 0 0  0 0 0 0.16 0" type="matrix" in="shadowBlurOuter1"></feColorMatrix>
        </filter>
        <linearGradient x1="50%" y1="0%" x2="50%" y2="100%" id="linearGradient-5">
            <stop stop-color="#E5233A" offset="0%"></stop>
            <stop stop-color="#CC162C" offset="100%"></stop>
        </linearGradient>
        <linearGradient x1="50%" y1="0%" x2="50%" y2="100%" id="linearGradient-6">
            <stop stop-color="#34CE4E" offset="0%"></stop>
            <stop stop-color="#2AB441" offset="100%"></stop>
        </linearGradient>
        <polygon id="path-7" points="0 0 9 7.5 0 15"></polygon>
        <filter x="-50%" y="-50%" width="200%" height="200%" filterUnits="objectBoundingBox" id="filter-8">
            <feMorphology radius="0.25" operator="dilate" in="SourceAlpha" result="shadowSpreadOuter1"></feMorphology>
            <feOffset dx="0" dy="0" in="shadowSpreadOuter1" result="shadowOffsetOuter1"></feOffset>
            <feColorMatrix values="0 0 0 0 0   0 0 0 0 0   0 0 0 0 0  0 0 0 0.06 0" type="matrix" in="shadowOffsetOuter1"></feColorMatrix>
        </filter>
        <polygon id="path-9" points="12 0 21 7.5 12 15"></polygon>
        <filter x="-50%" y="-50%" width="200%" height="200%" filterUnits="objectBoundingBox" id="filter-10">
            <feMorphology radius="0.25" operator="dilate" in="SourceAlpha" result="shadowSpreadOuter1"></feMorphology>
            <feOffset dx="0" dy="0" in="shadowSpreadOuter1" result="shadowOffsetOuter1"></feOffset>
            <feColorMatrix values="0 0 0 0 0   0 0 0 0 0   0 0 0 0 0  0 0 0 0.06 0" type="matrix" in="shadowOffsetOuter1"></feColorMatrix>
        </filter>
        <path d="M8.27842899,4.79531349 L-0.961851899,-1.43733467 L-2.08023771,0.220740472 L7.1593209,6.45290145 C7.05579686,6.78352245 7,7.1352452 7,7.5 C7,7.8647548 7.05579686,8.21647755 7.1593209,8.54709855 L-2.08023771,14.7792595 L-0.961851899,16.4373347 L8.27842899,10.2046865 C8.882742,10.7016338 9.65652742,11 10.5,11 C11.3434726,11 12.117258,10.7016338 12.721571,10.2046865 L21.9618519,16.4373347 L23.0802377,14.7792595 L13.8406791,8.54709855 C13.9442031,8.21647755 14,7.8647548 14,7.5 C14,7.1352452 13.9442031,6.78352245 13.8406791,6.45290145 L23.0802377,0.220740472 L21.9618519,-1.43733467 L12.721571,4.79531349 C12.117258,4.29836624 11.3434726,4 10.5,4 C9.65652742,4 8.882742,4.29836624 8.27842899,4.79531349 Z" id="path-11"></path>
        <filter x="-50%" y="-50%" width="200%" height="200%" filterUnits="objectBoundingBox" id="filter-12">
            <feMorphology radius="0.25" operator="dilate" in="SourceAlpha" result="shadowSpreadOuter1"></feMorphology>
            <feOffset dx="0" dy="0" in="shadowSpreadOuter1" result="shadowOffsetOuter1"></feOffset>
            <feColorMatrix values="0 0 0 0 0   0 0 0 0 0   0 0 0 0 0  0 0 0 0.06 0" type="matrix" in="shadowOffsetOuter1"></feColorMatrix>
        </filter>
        <linearGradient x1="50%" y1="0%" x2="50%" y2="100%" id="linearGradient-13">
            <stop stop-color="#E02239" offset="0%"></stop>
            <stop stop-color="#CC162C" offset="100%"></stop>
        </linearGradient>
        <rect id="path-14" x="0" y="0" width="21" height="15" rx="1.5"></rect>
    </defs>
    <g id="Flag-Kit" stroke="none" stroke-width="1" fill="none" fill-rule="evenodd">
        <g id="BI">
            <g id="Rectangle-1-Copy-3" transform="translate(1.000000, 1.000000)">
                <mask id="mask-3" fill="white">
                    <use xlink:href="#path-2"></use>
                </mask>
                <g id="Mask">
                    <use fill="black" fill-opacity="1" filter="url(#filter-4)" xlink:href="#path-2"></use>
                    <use fill="url(#linearGradient-1)" fill-rule="evenodd" xlink:href="#path-2"></use>
                </g>
                <rect id="Mask-Copy" fill="url(#linearGradient-5)" mask="url(#mask-3)" x="0" y="0" width="21" height="15"></rect>
                <g id="Rectangle-253" mask="url(#mask-3)">
                    <use fill="black" fill-opacity="1" filter="url(#filter-8)" xlink:href="#path-7"></use>
                    <use fill="url(#linearGradient-6)" fill-rule="evenodd" xlink:href="#path-7"></use>
                </g>
                <g id="Rectangle-253" mask="url(#mask-3)" transform="translate(16.500000, 7.500000) scale(-1, 1) translate(-16.500000, -7.500000) ">
                    <use fill="black" fill-opacity="1" filter="url(#filter-10)" xlink:href="#path-9"></use>
                    <use fill="url(#linearGradient-6)" fill-rule="evenodd" xlink:href="#path-9"></use>
                </g>
                <g id="Rectangle-2" mask="url(#mask-3)">
                    <use fill="black" fill-opacity="1" filter="url(#filter-12)" xlink:href="#path-11"></use>
                    <use fill="url(#linearGradient-1)" fill-rule="evenodd" xlink:href="#path-11"></use>
                </g>
                <path d="M10.5,6.5 L9.79289322,6.70710678 L10,6 L9.79289322,5.29289322 L10.5,5.5 L11.2071068,5.29289322 L11,6 L11.2071068,6.70710678 L10.5,6.5 Z M9,9 L8.29289322,9.20710678 L8.5,8.5 L8.29289322,7.79289322 L9,8 L9.70710678,7.79289322 L9.5,8.5 L9.70710678,9.20710678 L9,9 Z M12,9 L11.2928932,9.20710678 L11.5,8.5 L11.2928932,7.79289322 L12,8 L12.7071068,7.79289322 L12.5,8.5 L12.7071068,9.20710678 L12,9 Z" id="Star-2" fill="url(#linearGradient-13)" mask="url(#mask-3)"></path>
                <mask id="mask-15" fill="white">
                    <use xlink:href="#path-14"></use>
                </mask>
                <g id="Depth"></g>
            </g>
        </g>
    </g>
</svg>

<svg width="23" height="17" viewBox="0 0 23 17" xmlns="http://www.w3.org/2000/svg" xmlns:xlink="http://www.w3.org/1999/xlink"><title>BI</title><defs><linearGradient x1="50%" y1="0%" x2="50%" y2="100%" id="c"><stop stop-color="#FFF" offset="0%"/><stop stop-color="#F0F0F0" offset="100%"/></linearGradient><rect id="a" width="21" height="15" rx="1.5"/><filter x="-50%" y="-50%" width="200%" height="200%" filterUnits="objectBoundingBox" id="b"><feOffset dy=".5" in="SourceAlpha" result="shadowOffsetOuter1"/><feGaussianBlur stdDeviation=".5" in="shadowOffsetOuter1" result="shadowBlurOuter1"/><feColorMatrix values="0 0 0 0 0 0 0 0 0 0 0 0 0 0 0 0 0 0 0.16 0" in="shadowBlurOuter1"/></filter><linearGradient x1="50%" y1="0%" x2="50%" y2="100%" id="d"><stop stop-color="#E5233A" offset="0%"/><stop stop-color="#CC162C" offset="100%"/></linearGradient><linearGradient x1="50%" y1="0%" x2="50%" y2="100%" id="h"><stop stop-color="#34CE4E" offset="0%"/><stop stop-color="#2AB441" offset="100%"/></linearGradient><path id="g" d="M0 0l9 7.5L0 15z"/><filter x="-50%" y="-50%" width="200%" height="200%" filterUnits="objectBoundingBox" id="f"><feMorphology radius=".25" operator="dilate" in="SourceAlpha" result="shadowSpreadOuter1"/><feOffset in="shadowSpreadOuter1" result="shadowOffsetOuter1"/><feColorMatrix values="0 0 0 0 0 0 0 0 0 0 0 0 0 0 0 0 0 0 0.06 0" in="shadowOffsetOuter1"/></filter><path id="j" d="M12 0l9 7.5-9 7.5z"/><filter x="-50%" y="-50%" width="200%" height="200%" filterUnits="objectBoundingBox" id="i"><feMorphology radius=".25" operator="dilate" in="SourceAlpha" result="shadowSpreadOuter1"/><feOffset in="shadowSpreadOuter1" result="shadowOffsetOuter1"/><feColorMatrix values="0 0 0 0 0 0 0 0 0 0 0 0 0 0 0 0 0 0 0.06 0" in="shadowOffsetOuter1"/></filter><path d="M8.28 4.8L-.96-1.44-2.08.22l9.24 6.23a3.5 3.5 0 0 0 0 2.1l-9.24 6.23 1.12 1.66 9.24-6.24a3.49 3.49 0 0 0 4.44 0l9.24 6.24 1.12-1.66-9.24-6.23a3.5 3.5 0 0 0 0-2.1L23.08.22l-1.12-1.66-9.24 6.24a3.49 3.49 0 0 0-4.44 0z" id="l"/><filter x="-50%" y="-50%" width="200%" height="200%" filterUnits="objectBoundingBox" id="k"><feMorphology radius=".25" operator="dilate" in="SourceAlpha" result="shadowSpreadOuter1"/><feOffset in="shadowSpreadOuter1" result="shadowOffsetOuter1"/><feColorMatrix values="0 0 0 0 0 0 0 0 0 0 0 0 0 0 0 0 0 0 0.06 0" in="shadowOffsetOuter1"/></filter><linearGradient x1="50%" y1="0%" x2="50%" y2="100%" id="m"><stop stop-color="#E02239" offset="0%"/><stop stop-color="#CC162C" offset="100%"/></linearGradient></defs><g transform="translate(1 1)" fill="none" fill-rule="evenodd"><mask id="e" fill="#fff"><use xlink:href="#a"/></mask><use fill="#000" filter="url(#b)" xlink:href="#a"/><use fill="url(#c)" xlink:href="#a"/><path fill="url(#d)" mask="url(#e)" d="M0 0h21v15H0z"/><g mask="url(#e)"><use fill="#000" filter="url(#f)" xlink:href="#g"/><use fill="url(#h)" xlink:href="#g"/></g><g mask="url(#e)" transform="matrix(-1 0 0 1 33 0)"><use fill="#000" filter="url(#i)" xlink:href="#j"/><use fill="url(#h)" xlink:href="#j"/></g><g mask="url(#e)"><use fill="#000" filter="url(#k)" xlink:href="#l"/><use fill="url(#c)" xlink:href="#l"/></g><path d="M10.5 6.5l-.7.2.2-.7-.2-.7.7.2.7-.2-.2.7.2.7-.7-.2zM9 9l-.7.2.2-.7-.2-.7.7.2.7-.2-.2.7.2.7L9 9zm3 0l-.7.2.2-.7-.2-.7.7.2.7-.2-.2.7.2.7L12 9z" fill="url(#m)" mask="url(#e)"/></g></svg>
